X:308
T: Anna im Grabe (54c), S. 174f
N: T0197
O: Luxemburg
S: Singendes Volk, Esch-Alzette 1937 posth.]
N: Heffingen, fff Anna Kimmel, 12.4.1933
R: Liebeslieder]
M: 4/4
L: 1/8
K: G
D2 | GGBBD2G2 | E2GED2
D2 | G2G2A2AB | A2z4
DD | c3BA2dc | B3AG2
D2 | A2AcB2A2 | G2z4

